src/assets/svg/icons/fa/nuevos/classic/light/cloud-check classic light.svg

<svg xmlns="http://www.w3.org/2000/svg" viewBox="0 0 640 512"><!--! Font Awesome Pro 6.4.0 by @fontawesome - https://fontawesome.com License - https://fontawesome.com/license (Commercial License) Copyright 2023 Fonticons, Inc. --><path d="M389.8 125.2C363.7 88.1 320.7 64 272 64c-77.4 0-140.5 61-143.9 137.5c-.6 13-9 24.4-21.3 28.8C63.2 245.7 32 287.2 32 336c0 61.9 50.1 112 112 112H512c53 0 96-43 96-96c0-36.8-20.7-68.8-51.2-84.9c-13.4-7.1-20-22.5-15.8-37.1c2-6.9 3-14.3 3-22c0-44.2-35.8-80-80-80c-12.3 0-23.9 2.8-34.3 7.7c-14.1 6.7-30.9 2.3-39.9-10.5zM272 32c59.5 0 112.1 29.5 144 74.8C430.5 99.9 446.8 96 464 96c61.9 0 112 50.1 112 112c0 10.7-1.5 21-4.3 30.8C612.3 260.2 640 302.9 640 352c0 70.7-57.3 128-128 128H144C64.5 480 0 415.5 0 336c0-62.8 40.2-116.1 96.2-135.9C100.3 106.6 177.4 32 272 32zM427.3 235.3l-128 128c-6.2 6.2-16.4 6.2-22.6 0l-64-64c-6.2-6.2-6.2-16.4 0-22.6s16.4-6.2 22.6 0L288 329.4 404.7 212.7c6.2-6.2 16.4-6.2 22.6 0s6.2 16.4 0 22.6z"/></svg>

<svg xmlns="http://www.w3.org/2000/svg" viewBox="0 0 640 512"><path d="M299.3 363.3C293.1 369.6 282.9 369.6 276.7 363.3L212.7 299.3C206.4 293.1 206.4 282.9 212.7 276.7C218.9 270.4 229.1 270.4 235.3 276.7L288 329.4L404.7 212.7C410.9 206.4 421.1 206.4 427.3 212.7C433.6 218.9 433.6 229.1 427.3 235.3L299.3 363.3zM272 32C331.5 32 384.1 61.55 416 106.8C430.5 99.87 446.8 96 464 96C525.9 96 576 146.1 576 208C576 218.7 574.5 228.1 571.7 238.8C612.3 260.2 640 302.9 640 352C640 422.7 582.7 480 512 480H144C64.47 480 0 415.5 0 336C0 273.2 40.15 219.9 96.17 200.1C100.3 106.6 177.4 32 272 32zM272 64C194.6 64 131.5 125 128.1 201.5C127.6 214.6 119.1 225.1 106.8 230.3C63.18 245.7 32 287.2 32 336C32 397.9 82.14 448 144 448H512C565 448 608 405 608 352C608 315.2 587.3 283.2 556.8 267.1C543.4 259.1 536.8 244.5 540.9 229.1C542.9 223 544 215.7 544 208C544 163.8 508.2 128 464 128C451.7 128 440.1 130.8 429.7 135.7C415.7 142.4 398.8 137.9 389.8 125.2C363.7 88.12 320.7 64 272 64V64z"/></svg>
